X: 1106
T: A Minuet
%R: minuet, waltz
B: Henry Playford "Apollo's Banquet", London 1687 (5th Edition)
F: https://archive.org/details/apollosbanquetco01rugg
Z: 2017 John Chambers <jc:trillian.mit.edu>
M: 3/2
L: 1/8
K: C
% - - - - - - - - - -
|:\
G2c4 A3Bc2 | d2e2dc d4B2 |\
G2c4 A3Bc2 | d2B4 c6 ::\
g2g3(f/g/) a3gfe | f2f3ed4d2 |
e2f2d2 e3fg2 | cBA3G G6 |\
d2G2d2 d3ed2 | B2c2d2 e2d2g2 |\
e4f2 g2a2g2 | fed3c c6 |]
% - - - - - - - - - -

%%sep 1 1 500
%%sep 1 1 500

